WvOut w => blackhole;
"output.wav" => w.wavFilename;

SinOsc osc => w;
600 => osc.freq;

for (0 => int i; i < 3; i++)
{
	1.0 => osc.gain;
	1::second => now;

	0.0 => osc.gain;
	0.5::second => now;
}

w.closeFile();
